X:9621
T:Limerick Lasses
R:reel
S:
H:
N:
D:?
Z:Adrian Scahill
M:4/4
L:1/8
K:D
dBAF DEFD|G3A BEE2|dBAF DEFA|(3Bcd AG FDD2:||\
d3e f3d|efed cAA2|(3Bcd ef g2ag|fgeg fddc:||\
(3Bcd Ad (3Bcd Ad|(3Bcd ef gfed|(3Bcd Ad (3Bcd ag|fgeg fddc:||


